build/img/four_benefits/slider/3/num.svg

<svg width="80" height="80" viewBox="0 0 80 80" fill="none" xmlns="http://www.w3.org/2000/svg">
<g clip-path="url(#clip0_2_534)">
<path fill-rule="evenodd" clip-rule="evenodd" d="M32.8133 0.32351C50.1855 -1.01986 70.4029 1.25978 76.8945 17.9704C84.5083 37.5696 77.7115 60.7266 60.9975 72.8747C44.9727 84.5218 22.929 81.1793 8.04953 68.0083C-4.02564 57.3196 -0.392051 38.8825 5.23157 23.512C9.86627 10.8443 19.7478 1.33384 32.8133 0.32351Z" fill="#EF7F1A"/>
<path d="M32.2 47.216C30.232 47.216 28.728 46.472 27.688 44.984C26.664 43.48 26.152 41.328 26.152 38.528C26.152 36.624 26.384 35.032 26.848 33.752C27.312 32.472 27.992 31.504 28.888 30.848C29.784 30.192 30.888 29.864 32.2 29.864C34.184 29.864 35.688 30.6 36.712 32.072C37.736 33.528 38.248 35.672 38.248 38.504C38.248 40.376 38.016 41.96 37.552 43.256C37.088 44.552 36.408 45.536 35.512 46.208C34.616 46.88 33.512 47.216 32.2 47.216ZM32.2 45.152C33.432 45.152 34.336 44.616 34.912 43.544C35.504 42.456 35.8 40.776 35.8 38.504C35.8 36.216 35.504 34.552 34.912 33.512C34.336 32.456 33.432 31.928 32.2 31.928C30.984 31.928 30.08 32.456 29.488 33.512C28.896 34.552 28.6 36.216 28.6 38.504C28.6 40.776 28.896 42.456 29.488 43.544C30.08 44.616 30.984 45.152 32.2 45.152ZM46.3266 47.216C45.4306 47.216 44.5186 47.096 43.5906 46.856C42.6626 46.6 41.8546 46.224 41.1666 45.728C40.9106 45.568 40.7346 45.376 40.6386 45.152C40.5586 44.912 40.5426 44.696 40.5906 44.504C40.6386 44.296 40.7346 44.12 40.8786 43.976C41.0386 43.832 41.2306 43.752 41.4546 43.736C41.6786 43.704 41.9266 43.768 42.1986 43.928C42.8866 44.344 43.5586 44.648 44.2146 44.84C44.8706 45.016 45.5506 45.104 46.2546 45.104C47.0226 45.104 47.6706 44.992 48.1986 44.768C48.7266 44.544 49.1186 44.216 49.3746 43.784C49.6466 43.352 49.7826 42.832 49.7826 42.224C49.7826 41.312 49.4786 40.632 48.8706 40.184C48.2786 39.72 47.4146 39.488 46.2786 39.488L44.6466 39.488C44.2786 39.488 43.9986 39.4 43.8066 39.224C43.6146 39.032 43.5186 38.768 43.5186 38.432C43.5186 38.112 43.6146 37.864 43.8066 37.688C43.9986 37.496 44.2786 37.4 44.6466 37.4L46.0386 37.4C46.7266 37.4 47.3106 37.288 47.7906 37.064C48.2706 36.824 48.6386 36.496 48.8946 36.08C49.1666 35.648 49.3026 35.128 49.3026 34.52C49.3026 33.704 49.0306 33.08 48.4866 32.648C47.9586 32.2 47.1826 31.976 46.1586 31.976C45.5026 31.976 44.8786 32.064 44.2866 32.24C43.7106 32.416 43.1106 32.728 42.4866 33.176C42.2466 33.336 42.0146 33.408 41.7906 33.392C41.5826 33.36 41.3986 33.28 41.2386 33.152C41.0946 33.008 40.9906 32.832 40.9266 32.624C40.8786 32.416 40.8946 32.2 40.9746 31.976C41.0546 31.752 41.2146 31.56 41.4546 31.4C42.1266 30.904 42.8866 30.528 43.7346 30.272C44.5826 30 45.4546 29.864 46.3506 29.864C47.4706 29.864 48.4306 30.04 49.2306 30.392C50.0466 30.744 50.6626 31.248 51.0786 31.904C51.5106 32.56 51.7266 33.344 51.7266 34.256C51.7266 34.944 51.5986 35.568 51.3426 36.128C51.0866 36.688 50.7186 37.168 50.2386 37.568C49.7746 37.952 49.2066 38.224 48.5346 38.384L48.5346 38.12C49.7026 38.312 50.6066 38.792 51.2466 39.56C51.8866 40.312 52.2066 41.256 52.2066 42.392C52.2066 43.384 51.9666 44.248 51.4866 44.984C51.0226 45.704 50.3506 46.256 49.4706 46.64C48.5906 47.024 47.5426 47.216 46.3266 47.216Z" fill="white"/>
</g>
<defs>
<clipPath id="clip0_2_534">
<rect width="80" height="80" fill="white"/>
</clipPath>
</defs>
</svg>

<svg width="80" height="80" fill="none" xmlns="http://www.w3.org/2000/svg"><g clip-path="url(#a)"><path fill-rule="evenodd" clip-rule="evenodd" d="M32.813.324c17.372-1.344 37.59.936 44.081 17.646 7.614 19.6.817 42.757-15.897 54.905C44.974 84.522 22.93 81.179 8.05 68.008-4.026 57.32-.392 38.883 5.232 23.512 9.866 10.844 19.748 1.334 32.813.324Z" fill="#EF7F1A"/><path d="M32.2 47.216c-1.968 0-3.472-.744-4.512-2.232-1.024-1.504-1.536-3.656-1.536-6.456 0-1.904.232-3.496.696-4.776.464-1.28 1.144-2.248 2.04-2.904.896-.656 2-.984 3.312-.984 1.984 0 3.488.736 4.512 2.208 1.024 1.456 1.536 3.6 1.536 6.432 0 1.872-.232 3.456-.696 4.752-.464 1.296-1.144 2.28-2.04 2.952-.896.672-2 1.008-3.312 1.008Zm0-2.064c1.232 0 2.136-.536 2.712-1.608.592-1.088.888-2.768.888-5.04 0-2.288-.296-3.952-.888-4.992-.576-1.056-1.48-1.584-2.712-1.584-1.216 0-2.12.528-2.712 1.584-.592 1.04-.888 2.704-.888 4.992 0 2.272.296 3.952.888 5.04.592 1.072 1.496 1.608 2.712 1.608Zm14.127 2.064a10.9 10.9 0 0 1-2.736-.36c-.928-.256-1.736-.632-2.424-1.128-.256-.16-.432-.352-.528-.576a1.153 1.153 0 0 1-.048-.648 1.07 1.07 0 0 1 .288-.528.936.936 0 0 1 .576-.24c.224-.032.472.032.744.192a8.57 8.57 0 0 0 2.016.912 7.838 7.838 0 0 0 2.04.264c.768 0 1.416-.112 1.944-.336.528-.224.92-.552 1.176-.984.272-.432.408-.952.408-1.56 0-.912-.304-1.592-.912-2.04-.592-.464-1.456-.696-2.592-.696h-1.632c-.368 0-.648-.088-.84-.264-.192-.192-.288-.456-.288-.792 0-.32.096-.568.288-.744.192-.192.472-.288.84-.288h1.392c.688 0 1.272-.112 1.752-.336a2.65 2.65 0 0 0 1.104-.984c.272-.432.408-.952.408-1.56 0-.816-.272-1.44-.816-1.872-.528-.448-1.304-.672-2.328-.672-.656 0-1.28.088-1.872.264-.576.176-1.176.488-1.8.936-.24.16-.472.232-.696.216a1.147 1.147 0 0 1-.552-.24 1.255 1.255 0 0 1-.312-.528 1.136 1.136 0 0 1 .048-.648c.08-.224.24-.416.48-.576a7.41 7.41 0 0 1 2.28-1.128 8.513 8.513 0 0 1 2.616-.408c1.12 0 2.08.176 2.88.528.816.352 1.432.856 1.848 1.512.432.656.648 1.44.648 2.352a4.45 4.45 0 0 1-.384 1.872 4.04 4.04 0 0 1-1.104 1.44c-.464.384-1.032.656-1.704.816v-.264c1.168.192 2.072.672 2.712 1.44.64.752.96 1.696.96 2.832 0 .992-.24 1.856-.72 2.592-.464.72-1.136 1.272-2.016 1.656-.88.384-1.928.576-3.144.576Z" fill="#fff"/></g><defs><clipPath id="a"><path fill="#fff" d="M0 0h80v80H0z"/></clipPath></defs></svg>
